**kern	**kern	**dynam
*part1	*part1	*part1
*staff2	*staff1	*
*I"Piano	*	*
*clefF4	*clefG2	*
*k[b-e-]	*k[b-e-]	*
*g:	*g:	*
=1	=1	=1
*	*^	*
2.D	4.g	2.A 2.d	.
.	4.f#X)	.	.
*	*v	*v	*
=	=	=
(8GGG 8GG	8r	pp
8BnL	(8dL 8g	.
8cJ	8e-J 8a-X	.
4e-	4g 4cc	<
8d)	8f) 8bn	.
=	=	=
(8GG	8re	[ pp
8dL 8f	(8a-XL 8bn	.
8cJ 8f	8a-J 8cc	.
*^	*^	*
4c	4.f	4.a-	4ee-	<
8Bn)	.	.	8dd)	.
*v	*v	*	*	*
*	*v	*v	*
=	=	=
(8GG	8re	[ pp
!	!LO:TX:b:i:t=dim.	!
8dL	(8a-XL 8bn 8ff	.
8fJ	8bJ 8dd 8aa-X	.
*	*^	*
8fL	4.b 4.dd	8aa-L	.
8e-	.	8gg	.
8dJ	.	8ffJ	.
=	=	=	=
*^	*	*	*
4.C	8cL	4g	8ee-L	.
.	8dJ	.	8dd	.
*v	*v	*	*	*
.	8e-	8gJ 8cc	.
4.D	4.c 4.f#X	4b-X	.
.	.	8an	.
*	*v	*v	*
=	=	=
4.GG) 4.D	4.B-) 4.g	.
(4.DD	[4.G [4.B- [4.d	.
=	=	=
4.GGG;)	4.G;] 4.B-] 4.d]	.
4.r	4.r	.
==	==	==
*-	*-	*-
!!!system-decoration: {(s1,s2)}
